img/icons/rs-school.svg

<svg width="553" height="199" viewBox="0 0 553 199" fill="none" xmlns="http://www.w3.org/2000/svg">
<g clip-path="url(#clip0_259_2)">
<path d="M275.36 61.3695L301.65 59.7195C302.223 63.9929 303.383 67.2462 305.13 69.4795C307.983 73.0995 312.05 74.9095 317.33 74.9095C321.27 74.9095 324.31 73.9862 326.45 72.1395C327.43 71.3728 328.226 70.3965 328.78 69.2822C329.333 68.1678 329.631 66.9437 329.65 65.6995C329.634 64.5067 329.357 63.3319 328.839 62.2574C328.32 61.183 327.573 60.2348 326.65 59.4795C324.65 57.6529 319.933 55.9229 312.5 54.2895C300.38 51.5695 291.737 47.9495 286.57 43.4295C284.056 41.3236 282.048 38.6785 280.696 35.6904C279.344 32.7024 278.682 29.4483 278.76 26.1695C278.779 21.5361 280.171 17.0123 282.76 13.1695C285.717 8.83845 289.893 5.48323 294.76 3.52953C300.093 1.18953 307.427 0.0195312 316.76 0.0195312C328.187 0.0195312 336.9 2.1462 342.9 6.39953C348.9 10.6529 352.47 17.4129 353.61 26.6795L327.56 28.1995C326.893 24.1995 325.44 21.2729 323.2 19.4195C320.96 17.5662 317.893 16.6429 314 16.6495C310.79 16.6495 308.37 17.3395 306.75 18.6995C305.985 19.2879 305.366 20.0456 304.943 20.9131C304.52 21.7805 304.303 22.7343 304.31 23.6995C304.334 24.4486 304.527 25.1826 304.873 25.8472C305.219 26.5119 305.71 27.0903 306.31 27.5395C307.61 28.7195 310.7 29.8195 315.58 30.8395C327.66 33.4395 336.327 36.0729 341.58 38.7395C346.833 41.4062 350.633 44.7095 352.98 48.6495C355.375 52.6464 356.611 57.2305 356.55 61.8895C356.579 67.5309 354.925 73.0527 351.8 77.7495C348.547 82.6467 343.92 86.4735 338.5 88.7495C332.8 91.2495 325.62 92.4995 316.96 92.4995C301.753 92.4995 291.22 89.5729 285.36 83.7195C279.5 77.8662 276.167 70.4162 275.36 61.3695ZM6.27 90.9995V1.52953H52.33C60.87 1.52953 67.3967 2.25953 71.91 3.71953C76.3557 5.1395 80.1993 8.00461 82.83 11.8595C85.6932 16.1383 87.1509 21.2034 87 26.3495C87.116 30.8404 86.0099 35.2784 83.8 39.1895C81.6793 42.8153 78.6762 45.8459 75.07 47.9995C72.0382 49.6718 68.7663 50.8659 65.37 51.5395C67.9112 52.2879 70.3324 53.3958 72.56 54.8295C74.2155 56.2056 75.7055 57.7695 77 59.4895C78.4564 61.199 79.7456 63.0441 80.85 64.9995L94.23 90.9995H63L48.24 63.6295C46.3667 60.0895 44.7 57.7895 43.24 56.7295C41.2505 55.3508 38.8803 54.6272 36.46 54.6595H34V90.9995H6.27ZM34 37.7595H45.68C48.1519 37.575 50.6019 37.1666 53 36.5395C54.792 36.1957 56.3903 35.1932 57.48 33.7295C58.6323 32.251 59.2461 30.4238 59.22 28.5495C59.2952 27.3052 59.0867 26.06 58.6103 24.908C58.134 23.756 57.4021 22.7273 56.47 21.8995C54.6433 20.3529 51.2067 19.5795 46.16 19.5795H34V37.7595ZM0 167.56L26.29 165.92C26.8633 170.193 28.0233 173.446 29.77 175.68C32.59 179.3 36.6667 181.11 42 181.11C45.94 181.11 48.98 180.183 51.12 178.33C52.1 177.563 52.8961 176.586 53.4498 175.472C54.0035 174.358 54.3008 173.134 54.32 171.89C54.3024 170.697 54.0248 169.523 53.5067 168.448C52.9886 167.374 52.2423 166.426 51.32 165.67C49.32 163.843 44.6033 162.116 37.17 160.49C25.05 157.756 16.4067 154.136 11.24 149.63C8.72612 147.521 6.71886 144.874 5.36691 141.885C4.01496 138.895 3.35297 135.64 3.43 132.36C3.45213 127.727 4.84382 123.204 7.43 119.36C10.3868 115.028 14.5634 111.673 19.43 109.72C24.7633 107.38 32.0967 106.21 41.43 106.21C52.8567 106.21 61.57 108.336 67.57 112.59C73.57 116.843 77.14 123.603 78.28 132.87L52.28 134.4C51.6133 130.4 50.16 127.47 47.92 125.61C45.68 123.75 42.6167 122.836 38.73 122.87C35.5233 122.87 33.1067 123.536 31.48 124.87C30.7148 125.458 30.0963 126.216 29.673 127.083C29.2496 127.951 29.033 128.904 29.04 129.87C29.0628 130.62 29.2544 131.356 29.6007 132.023C29.9469 132.689 30.4389 133.269 31.04 133.72C32.34 134.9 35.43 135.996 40.31 137.01C52.39 139.61 61.0567 142.243 66.31 144.91C71.5633 147.576 75.3633 150.88 77.71 154.82C80.1034 158.817 81.3394 163.401 81.28 168.06C81.31 173.701 79.6561 179.223 76.53 183.92C73.2775 188.817 68.6504 192.644 63.23 194.92C57.53 197.42 50.35 198.67 41.69 198.67C26.4833 198.67 15.95 195.743 10.09 189.89C4.23 184.036 0.866667 176.593 0 167.56ZM163 160.55L187.22 167.87C185.88 174.014 183.26 179.807 179.53 184.87C176.131 189.343 171.66 192.889 166.53 195.18C161.343 197.493 154.743 198.65 146.73 198.65C137.01 198.65 129.07 197.24 122.91 194.42C116.75 191.6 111.417 186.63 106.91 179.51C102.43 172.396 100.193 163.293 100.2 152.2C100.2 137.413 104.133 126.043 112 118.09C119.867 110.136 131 106.163 145.4 106.17C156.673 106.17 165.53 108.45 171.97 113.01C178.41 117.57 183.197 124.57 186.33 134.01L161.93 139.44C161.357 137.311 160.453 135.287 159.25 133.44C157.772 131.388 155.829 129.715 153.58 128.56C151.249 127.398 148.674 126.812 146.07 126.85C139.81 126.85 135.013 129.37 131.68 134.41C129.147 138.15 127.883 144.02 127.89 152.02C127.89 161.926 129.397 168.72 132.41 172.4C135.423 176.08 139.653 177.916 145.1 177.91C150.38 177.91 154.38 176.426 157.1 173.46C159.82 170.493 161.787 166.19 163 160.55ZM208.51 107.72H236.14V139H266.34V107.72H294.09V197.15H266.34V161H236.14V197.18H208.51V107.72ZM311.29 152.49C311.29 137.903 315.357 126.536 323.49 118.39C331.623 110.243 342.957 106.176 357.49 106.19C372.37 106.19 383.837 110.19 391.89 118.19C399.943 126.19 403.98 137.38 404 151.76C404 162.22 402.24 170.793 398.72 177.48C395.295 184.078 389.987 189.511 383.47 193.09C376.803 196.81 368.517 198.67 358.61 198.67C348.53 198.67 340.197 197.063 333.61 193.85C326.843 190.496 321.243 185.182 317.54 178.6C313.367 171.653 311.283 162.95 311.29 152.49ZM338.92 152.62C338.92 161.653 340.587 168.14 343.92 172.08C347.253 176.02 351.82 177.99 357.62 177.99C363.56 177.99 368.157 176.06 371.41 172.2C374.663 168.34 376.29 161.406 376.29 151.4C376.29 142.98 374.59 136.826 371.19 132.94C367.79 129.053 363.183 127.113 357.37 127.12C354.842 127.029 352.327 127.51 350.012 128.529C347.696 129.547 345.641 131.075 344 133C340.62 137 338.927 143.54 338.92 152.62Z" fill="white"/>
<path d="M392.28 152.489C392.28 137.903 396.347 126.536 404.48 118.389C412.614 110.243 423.947 106.176 438.48 106.189C453.374 106.189 464.844 110.189 472.89 118.189C480.937 126.189 484.96 137.383 484.96 151.769C484.96 162.229 483.204 170.803 479.69 177.489C476.262 184.086 470.955 189.518 464.44 193.099C457.774 196.819 449.487 198.679 439.58 198.679C429.494 198.679 421.16 197.073 414.58 193.859C407.812 190.503 402.21 185.19 398.5 178.609C394.354 171.656 392.28 162.949 392.28 152.489ZM419.92 152.619C419.92 161.653 421.587 168.139 424.92 172.079C428.254 176.019 432.827 177.993 438.64 177.999C444.58 177.999 449.177 176.069 452.43 172.209C455.684 168.349 457.31 161.416 457.31 151.409C457.31 142.989 455.614 136.836 452.22 132.949C448.827 129.063 444.22 127.123 438.4 127.129C435.868 127.032 433.347 127.51 431.026 128.526C428.706 129.543 426.645 131.072 425 132.999C421.607 136.999 419.914 143.539 419.92 152.619Z" fill="white"/>
<path d="M482.08 107.72H509.72V175.13H552.85V197.13H482.08V107.72Z" fill="white"/>
</g>
<defs>
<clipPath id="clip0_259_2">
<rect width="552.85" height="198.67" fill="white"/>
</clipPath>
</defs>
</svg>

<svg xmlns="http://www.w3.org/2000/svg" viewBox="0 0 552.85 198.67"><title>rs_school</title><g data-name="Layer 2"><g data-name="Layer 1"><path d="M275.36 61.37l26.29-1.65q.86 6.41 3.48 9.76 4.28 5.43 12.2 5.43 5.91 0 9.12-2.77a8.34 8.34 0 0 0 3.2-6.44 8.18 8.18 0 0 0-3-6.22q-3-2.74-14.15-5.19-18.18-4.08-25.93-10.86a21.84 21.84 0 0 1-7.81-17.26 23.44 23.44 0 0 1 4-13 26.47 26.47 0 0 1 12-9.64q8-3.51 22-3.51 17.14 0 26.14 6.38t10.71 20.28l-26.05 1.52q-1-6-4.36-8.78t-9.2-2.77c-3.21 0-5.63.69-7.25 2.05a6.25 6.25 0 0 0-2.44 5 5 5 0 0 0 2 3.84q1.95 1.77 9.27 3.3 18.12 3.9 26 7.9t11.4 9.91a25.12 25.12 0 0 1 3.57 13.24 28.37 28.37 0 0 1-4.75 15.86 29.83 29.83 0 0 1-13.3 11q-8.55 3.75-21.54 3.75-22.81 0-31.6-8.78t-10-22.35zM6.27 91V1.53h46.06q12.81 0 19.58 2.19a20.93 20.93 0 0 1 10.92 8.14A24.75 24.75 0 0 1 87 26.35a24.8 24.8 0 0 1-3.2 12.84A24.91 24.91 0 0 1 75.07 48a33.63 33.63 0 0 1-9.7 3.54 27.79 27.79 0 0 1 7.19 3.29A27.79 27.79 0 0 1 77 59.49 35.16 35.16 0 0 1 80.85 65l13.38 26H63L48.24 63.63q-2.81-5.31-5-6.9a11.63 11.63 0 0 0-6.78-2.07H34V91zM34 37.76h11.68A41 41 0 0 0 53 36.54a7.3 7.3 0 0 0 4.48-2.81 8.24 8.24 0 0 0 1.74-5.18 8.23 8.23 0 0 0-2.75-6.65q-2.74-2.32-10.31-2.32H34zM0 167.56l26.29-1.64q.86 6.41 3.48 9.76Q34 181.11 42 181.11q5.91 0 9.12-2.78a8.34 8.34 0 0 0 3.2-6.44 8.2 8.2 0 0 0-3-6.22q-3-2.74-14.15-5.18-18.18-4.1-25.93-10.86a21.87 21.87 0 0 1-7.81-17.27 23.49 23.49 0 0 1 4-13 26.47 26.47 0 0 1 12-9.64q8-3.51 22-3.51 17.14 0 26.14 6.38t10.71 20.28l-26 1.53q-1-6-4.36-8.79t-9.19-2.74q-4.81 0-7.25 2a6.25 6.25 0 0 0-2.44 5 5 5 0 0 0 2 3.85q1.95 1.77 9.27 3.29 18.12 3.9 26 7.9t11.4 9.91a25.15 25.15 0 0 1 3.57 13.24 28.35 28.35 0 0 1-4.75 15.86 29.83 29.83 0 0 1-13.3 11q-8.55 3.75-21.54 3.75-22.81 0-31.6-8.78T0 167.56zm163-7.01l24.22 7.32a44.72 44.72 0 0 1-7.69 17 33.46 33.46 0 0 1-13 10.31q-7.78 3.47-19.8 3.47-14.58 0-23.82-4.23t-16-14.91q-6.72-10.67-6.71-27.31 0-22.18 11.8-34.11t33.4-11.92q16.91 0 26.57 6.84t14.36 21l-24.4 5.43a21 21 0 0 0-2.68-6 16 16 0 0 0-5.67-4.88 16.31 16.31 0 0 0-7.51-1.71q-9.39 0-14.39 7.56-3.8 5.61-3.79 17.61 0 14.86 4.52 20.38t12.69 5.51q7.92 0 12-4.45t5.9-12.91zm45.51-52.83h27.63V139h30.2v-31.28h27.75v89.43h-27.75V161h-30.2v36.18h-27.63zm102.78 44.77q0-21.88 12.2-34.1t34-12.2q22.32 0 34.4 12T404 151.76q0 15.69-5.28 25.72a37.54 37.54 0 0 1-15.25 15.61q-10 5.58-24.86 5.58-15.12 0-25-4.82a37.59 37.59 0 0 1-16.07-15.25q-6.26-10.42-6.25-26.11zm27.63.13q0 13.55 5 19.46t13.7 5.91q8.91 0 13.79-5.79t4.88-20.8q0-12.63-5.1-18.46t-13.82-5.82A16.78 16.78 0 0 0 344 133q-5.07 6-5.08 19.62z"/><path d="M392.28 152.49q0-21.88 12.2-34.1t34-12.2q22.34 0 34.41 12t12.07 33.58q0 15.69-5.27 25.72a37.6 37.6 0 0 1-15.25 15.61q-10 5.58-24.86 5.58-15.13 0-25-4.82a37.67 37.67 0 0 1-16.08-15.25q-6.22-10.43-6.22-26.12zm27.64.13q0 13.55 5 19.46t13.72 5.92q8.91 0 13.79-5.79t4.88-20.8q0-12.63-5.09-18.46t-13.82-5.82A16.77 16.77 0 0 0 425 133q-5.09 6-5.08 19.62z"/><path d="M482.08 107.72h27.64v67.41h43.13v22h-70.77z"/></g></g></svg>
